!!!OTL: Jungfer Doertchen Herr Malmsten han droemde en droem om en natt.
!!!ARE: Nordeuropa, Sverige
!!!YOR: 3, S. 99
!!    1880 gedruckt in Stockholm
!!!SCT: Q2057J
!!!YEM: Copyright 1995, estate of Helmut Schaffrath.
**kern
*ICvox
*Ivox
*M6/4
*k[f#]
*G:
{8g
8a
4b
4b
4a
=1
4g
4g
4b
4dd
4dd
4cc
=2
4b
4r}
{4b
4dd
4dd
4dd
=3
4dd
4cc
4b
4b
4a
4b
=4
4g
4r}
{8g
8a
4b
4b
4a
=5
4g
4g
4b
4dd
4dd
4cc
=6
4b
4r}
{4a
2b
4d
=7
2e
4f#
2g
4f#
=8
2e}
==
!!!AGN: Ballade, Todesahnung, Tod, Selbstmord
!! Textverwandte Ballade aus Schweden. Modulation in die parallele
!!    Molltonart.
!!!ONB: ESAC (Essen Associative Code) Database: BALLADE
!!!AMT: compound duple
!!!AIN: vox
!!!EED: Helmut Schaffrath
!!!EEV: 1.0
*-
